src/images/svg/symbols/markets-stocks-and-indices/american-stocks/stocks-general-motors-company.svg

<svg width="32" height="32" viewBox="0 0 32 32" fill="none" xmlns="http://www.w3.org/2000/svg">
<path d="M0 16C0 7.16344 7.16344 0 16 0C24.8366 0 32 7.16344 32 16C32 24.8366 24.8366 32 16 32C7.16344 32 0 24.8366 0 16Z" fill="#0671D8"/>
<path d="M15.2258 19.871V18.8387H20.9032V19.871H15.2258Z" fill="white"/>
<path d="M15.2258 12.129V17.6774H16.3871V13.1613H17.5484V17.6774H18.7097V13.1613H19.4839C19.6977 13.1613 19.871 13.3346 19.871 13.5484V17.6774H21.0323V13.4194C21.0323 12.7067 20.4546 12.129 19.7419 12.129H15.2258Z" fill="white"/>
<path fill-rule="evenodd" clip-rule="evenodd" d="M10.9677 13.4194C10.9677 12.7067 11.5454 12.129 12.2581 12.129H14.4516V17.9355C14.4516 19.0044 13.4695 19.871 12.2581 19.871H11.6129V18.8387H12.2581C12.8282 18.8387 13.2903 18.4343 13.2903 17.9355V17.6774H12.2581C11.5454 17.6774 10.9677 17.0997 10.9677 16.3871V13.4194ZM13.2903 13.1613H12.5161C12.3023 13.1613 12.129 13.3346 12.129 13.5484V16.2581C12.129 16.4719 12.3023 16.6452 12.5161 16.6452H13.2903V13.1613Z" fill="white"/>
<path fill-rule="evenodd" clip-rule="evenodd" d="M8 10.0645C8 8.92432 8.92432 8 10.0645 8H21.9355C23.0757 8 24 8.92432 24 10.0645V21.9355C24 23.0757 23.0757 24 21.9355 24H10.0645C8.92432 24 8 23.0757 8 21.9355V10.0645ZM21.9355 9.03226H10.0645C9.49442 9.03226 9.03226 9.49442 9.03226 10.0645V21.9355C9.03226 22.5056 9.49442 22.9677 10.0645 22.9677H21.9355C22.5056 22.9677 22.9677 22.5056 22.9677 21.9355V10.0645C22.9677 9.49442 22.5056 9.03226 21.9355 9.03226Z" fill="white"/>
</svg>

<svg width="32" height="32" fill="none" xmlns="http://www.w3.org/2000/svg"><path d="M0 16C0 7.163 7.163 0 16 0s16 7.163 16 16-7.163 16-16 16S0 24.837 0 16Z" fill="#0671D8"/><path d="M15.226 19.871v-1.032h5.677v1.032h-5.677ZM15.226 12.129v5.548h1.161v-4.516h1.161v4.516h1.162v-4.516h.774c.214 0 .387.174.387.387v4.13h1.161v-4.259a1.29 1.29 0 0 0-1.29-1.29h-4.516Z" fill="#fff"/><path fill-rule="evenodd" clip-rule="evenodd" d="M10.968 13.42c0-.713.577-1.291 1.29-1.291h2.194v5.807c0 1.068-.982 1.935-2.194 1.935h-.645v-1.032h.645c.57 0 1.032-.405 1.032-.903v-.259h-1.032a1.29 1.29 0 0 1-1.29-1.29V13.42Zm2.322-.259h-.774a.387.387 0 0 0-.387.387v2.71c0 .214.173.387.387.387h.774v-3.484Z" fill="#fff"/><path fill-rule="evenodd" clip-rule="evenodd" d="M8 10.065C8 8.925 8.924 8 10.065 8h11.87C23.076 8 24 8.924 24 10.065v11.87c0 1.14-.924 2.065-2.064 2.065H10.065A2.065 2.065 0 0 1 8 21.936V10.065Zm13.936-1.033H10.065c-.57 0-1.033.462-1.033 1.033v11.87c0 .57.462 1.033 1.033 1.033h11.87c.57 0 1.033-.462 1.033-1.032V10.065c0-.57-.462-1.033-1.032-1.033Z" fill="#fff"/></svg>
